X:113
T:Greencastle Hornpipe, The
R:hornpipe
H:Also in D, #112
Z:id:hn-hornpipe-113
M:C|
L:1/8
K:G
dc | BGDG BGDG | g2fg e2dc | BGDG BGDG | c2Bc A2dc |
BGDG BGDG | g2fg e2dc | Bdfe dcAF | G2GF G2 :|
|: ga | bagf efga | bagf e2fg | agfe defg | agfe d2ef |
gfgd e2dB | cBAB cdef | gfgd ecAF | G2GF G2 :|

